StripePaymentsUI/StripePaymentsUI/Resources/StripePaymentsUI.xcassets/CardsNoPadding/stp_card_unpadded_maestro.imageset/stp_card_unpadded_maestro.svg

<svg fill="none" height="16" viewBox="0 0 24 16" width="24" xmlns="http://www.w3.org/2000/svg"><path d="m22 0h-20c-1.10457 0-2 .89543-2 2v12c0 1.1046.89543 2 2 2h20c1.1046 0 2-.8954 2-2v-12c0-1.10457-.8954-2-2-2z" fill="#252525"/><path d="m9 13c2.7614 0 5-2.2386 5-5 0-2.76142-2.2386-5-5-5-2.76142 0-5 2.23858-5 5 0 2.7614 2.23858 5 5 5z" fill="#eb001b"/><path d="m15 13c2.7614 0 5-2.2386 5-5 0-2.76142-2.2386-5-5-5s-5 2.23858-5 5c0 2.7614 2.2386 5 5 5z" fill="#0b9bd7"/><path clip-rule="evenodd" d="m12 3.99963c1.2144.91221 2 2.36455 2 4.00037s-.7856 3.0882-2 4.0004c-1.2144-.9122-2-2.36458-2-4.0004s.7856-3.08816 2-4.00037z" fill="#7673c0" fill-rule="evenodd"/></svg>

<svg width="24" height="16" viewBox="0 0 24 16" fill="none" xmlns="http://www.w3.org/2000/svg">
<path d="M22 0H2C0.89543 0 0 0.89543 0 2V14C0 15.1046 0.89543 16 2 16H22C23.1046 16 24 15.1046 24 14V2C24 0.89543 23.1046 0 22 0Z" fill="#252525"/>
<path d="M9 13C11.7614 13 14 10.7614 14 8C14 5.23858 11.7614 3 9 3C6.23858 3 4 5.23858 4 8C4 10.7614 6.23858 13 9 13Z" fill="#EB001B"/>
<path d="M15 13C17.7614 13 20 10.7614 20 8C20 5.23858 17.7614 3 15 3C12.2386 3 10 5.23858 10 8C10 10.7614 12.2386 13 15 13Z" fill="#0B9BD7"/>
<path fill-rule="evenodd" clip-rule="evenodd" d="M12 3.99963C13.2144 4.91184 14 6.36418 14 8C14 9.63582 13.2144 11.0882 12 12.0004C10.7856 11.0882 10 9.63582 10 8C10 6.36418 10.7856 4.91184 12 3.99963Z" fill="#7673C0"/>
</svg>
